client/public/assets/icons/standard/channel_programs.svg

<?xml version="1.0"?><svg xmlns="http://www.w3.org/2000/svg" width="100" height="100" viewBox="0 0 100 100"><path fill="#fff" d="m49 20c-16.5 0-30 13.5-30 30s13.5 30 30 30 30-13.5 30-30-13.5-30-30-30z m23.8 27h-7.9c-0.3-7.1-1.9-13.3-4.3-18 6.6 3.7 11.2 10.3 12.2 18z m-26.8-19.7v19.7h-6.9c0.5-9.4 3.5-16.8 6.9-19.7z m0 25.7v19.7c-3.4-2.9-6.4-10.3-6.9-19.7h6.9z m6 19.7v-19.7h6.9c-0.5 9.4-3.5 16.8-6.9 19.7z m0-25.7v-19.7c3.4 2.9 6.4 10.3 6.9 19.7h-6.9z m-14.6-18c-2.4 4.7-3.9 10.9-4.3 18h-7.9c1-7.7 5.6-14.3 12.2-18z m-12.2 24h7.9c0.3 7.1 1.9 13.3 4.3 18-6.6-3.7-11.2-10.3-12.2-18z m35.4 18c2.4-4.7 3.9-10.9 4.3-18h7.9c-1 7.7-5.6 14.3-12.2 18z"></path></svg>

<?xml version="1.0" encoding="utf-8"?>
<!-- Generator: Adobe Illustrator 21.1.0, SVG Export Plug-In . SVG Version: 6.00 Build 0)  -->
<svg version="1.1" id="Layer_1" xmlns="http://www.w3.org/2000/svg" xmlns:xlink="http://www.w3.org/1999/xlink" x="0px" y="0px"
	 width="100px" height="100px" viewBox="0 0 100 100" enable-background="new 0 0 100 100" xml:space="preserve">
<path fill="#FFFFFF" d="M49,20c-16.5,0-30,13.5-30,30s13.5,30,30,30s30-13.5,30-30S65.5,20,49,20z M72.8,47h-7.9
	c-0.3-7.1-1.9-13.3-4.3-18C67.2,32.7,71.8,39.3,72.8,47z M46,27.3V47h-6.9C39.6,37.6,42.6,30.2,46,27.3z M46,53v19.7
	c-3.4-2.9-6.4-10.3-6.9-19.7L46,53z M52,72.7V53h6.9C58.4,62.4,55.4,69.8,52,72.7z M52,47V27.3c3.4,2.9,6.4,10.3,6.9,19.7H52z
	 M37.4,29c-2.4,4.7-3.9,10.9-4.3,18h-7.9C26.2,39.3,30.8,32.7,37.4,29z M25.2,53h7.9c0.3,7.1,1.9,13.3,4.3,18
	C30.8,67.3,26.2,60.7,25.2,53z M60.6,71c2.4-4.7,3.9-10.9,4.3-18h7.9C71.8,60.7,67.2,67.3,60.6,71z"/>
</svg>
